symbols/web/border_bottom/materialsymbolsoutlined/border_bottom_wght300gradN25_48px.svg

<svg xmlns="http://www.w3.org/2000/svg" height="48" width="48"><path d="M6.5 41.5v-2.4h35v2.4Zm0-8.15V30.9h2.4v2.45Zm16.3 0V30.9h2.4v2.45Zm16.3 0V30.9h2.4v2.45ZM6.5 25.2v-2.4h2.4v2.4Zm8.15 0v-2.4h2.45v2.4Zm8.15 0v-2.4h2.4v2.4Zm8.15 0v-2.4h2.4v2.4Zm8.15 0v-2.4h2.4v2.4ZM6.5 17.05v-2.4h2.4v2.4Zm16.3 0v-2.4h2.4v2.4Zm16.3 0v-2.4h2.4v2.4ZM6.5 8.9V6.5h2.4v2.4Zm8.15 0V6.5h2.45v2.4Zm8.15 0V6.5h2.4v2.4Zm8.15 0V6.5h2.4v2.4Zm8.15 0V6.5h2.4v2.4Z"/></svg>

<svg xmlns="http://www.w3.org/2000/svg" height="48" width="48"><path d="M14.65 8.9V6.5H17.1V8.9ZM14.65 25.2V22.8H17.1V25.2ZM22.8 25.2V22.8H25.2V25.2ZM22.8 8.9V6.5H25.2V8.9ZM6.5 17.05V14.65H8.9V17.05ZM6.5 8.9V6.5H8.9V8.9ZM6.5 25.2V22.8H8.9V25.2ZM6.5 33.35V30.9H8.9V33.35ZM22.8 17.05V14.65H25.2V17.05ZM39.1 33.35V30.9H41.5V33.35ZM39.1 25.2V22.8H41.5V25.2ZM6.5 41.5V39.1H41.5V41.5ZM39.1 17.05V14.65H41.5V17.05ZM30.95 8.9V6.5H33.35V8.9ZM22.8 33.35V30.9H25.2V33.35ZM39.1 8.9V6.5H41.5V8.9ZM30.95 25.2V22.8H33.35V25.2Z"/></svg>
